epam-assets/icon-sources/18/internal-logo/heroes.svg

<svg width="18" height="18" viewBox="0 0 18 18" fill="none" xmlns="http://www.w3.org/2000/svg">
<g id="18/internal-logo/heroes">
<path id="icon" fill-rule="evenodd" clip-rule="evenodd" d="M5.63433 13.0312L7.52808 7.425C7.79058 6.6375 8.5312 6.10313 9.36558 6.1125L8.6812 8.15625C8.67183 8.18437 8.6812 8.2125 8.69995 8.23125C8.7187 8.25 8.73745 8.25937 8.76558 8.25937H9.7687C9.81558 8.25937 9.86245 8.22187 9.8812 8.175L12.2625 1.125L10.4156 3.94688C9.9562 3.81562 9.4687 3.75 8.96245 3.75C6.06558 3.76875 3.71245 6.15937 3.74995 9.06562C3.7687 10.65 4.49058 12.075 5.63433 13.0312ZM8.91558 14.25C11.8125 14.2875 14.2125 11.9531 14.25 9.05625C14.2687 7.41562 13.5281 5.94375 12.3656 4.96875L10.4718 10.575C10.2 11.3625 9.45933 11.8969 8.62495 11.8969L9.42183 9.54375C9.4312 9.51562 9.4312 9.49687 9.41245 9.46875C9.3937 9.45 9.37495 9.43125 9.34683 9.43125H8.3437C8.28745 9.43125 8.24995 9.46875 8.2312 9.51562L5.73745 16.875L7.57495 14.0531C7.99683 14.175 8.44683 14.2406 8.91558 14.25Z" fill="#6C6F80"/>
</g>
</svg>

<svg xmlns="http://www.w3.org/2000/svg" width="18" height="18" fill="none" viewBox="0 0 18 18">
  <path fill="#6C6F80" fill-rule="evenodd" d="m5.634 13.031 1.894-5.606a1.917 1.917 0 0 1 1.838-1.313L8.68 8.156c-.01.028 0 .056.019.075a.085.085 0 0 0 .066.028h1.003c.047 0 .093-.037.112-.084l2.381-7.05-1.846 2.822a5.281 5.281 0 0 0-1.454-.197A5.26 5.26 0 0 0 3.75 9.066a5.238 5.238 0 0 0 1.884 3.965Zm3.282 1.219c2.896.037 5.296-2.297 5.334-5.194a5.249 5.249 0 0 0-1.884-4.087l-1.894 5.606a1.958 1.958 0 0 1-1.847 1.322l.797-2.353c.01-.028.01-.047-.01-.075-.018-.019-.037-.038-.065-.038H8.344c-.057 0-.094.038-.113.085l-2.494 7.359 1.838-2.822c.422.122.872.188 1.34.197Z" clip-rule="evenodd"/>
</svg>
